svg/white/knc.svg

<svg xmlns="http://www.w3.org/2000/svg" width="32" height="32" viewBox="0 0 32 32">
  <path fill="#FFF" d="M16,32 C7.163444,32 0,24.836556 0,16 C0,7.163444 7.163444,0 16,0 C24.836556,0 32,7.163444 32,16 C32,24.836556 24.836556,32 16,32 Z M15.0860927,14.4623656 L15.2450331,27 L21.7615894,21.4802867 L15.0860927,14.4623656 Z M15.4039735,13.9892473 L21.7615894,20.7706093 L22,10.6774194 L15.4039735,13.9892473 Z M15.0066225,13.437276 L21.9205298,10.2043011 L15.0066225,5 L15.0066225,13.437276 Z M14.5298013,5.23655914 L10,10.3620072 L11.1125828,21.3225806 L14.7682119,26.4480287 L14.5298013,5.23655914 Z"/>
</svg>

<svg xmlns="http://www.w3.org/2000/svg" width="32" height="32"><path fill="#FFF" d="M16 32C7.163 32 0 24.837 0 16S7.163 0 16 0s16 7.163 16 16-7.163 16-16 16zm-.914-17.538L15.245 27l6.517-5.52-6.676-7.018zm.318-.473l6.358 6.782L22 10.677l-6.596 3.312zm-.397-.552l6.914-3.233L15.007 5v8.437zm-.477-8.2L10 10.362l1.113 10.96 3.655 5.126-.238-21.211z"/></svg>
